X:290
T:Drive the Monsieur from Flanders
C:John Young, 1710
%%MIDI program 71     Clarinet
%%MIDI chordprog 46   Orchestral Harp
%%MIDI bassprog 32    Acoustic Bass
%%MIDI chordprog 45   Pizzicato Strings
%%MIDI beat 100 95 80
S:Colin Hume's website,  colinhume.com  - chords can also be printed below the stave.
Q:1/2=112
M:2/2
R:Reel
L:1/8
K:Gm
P:A
|: g^f | "Gm"g4 "/F"GABc | "Eb"dcde "D7"d2ba | "Gm"(gab2) "F7"(fd) (cB) | "Bb"B6 :|
P:B
|: f=e | "F"f4 FGAB | "/"cBcd c2f=e | "Bb"d=ef2 "Gm"b2(bg) |\
"A7"(=ef)g2 "D7"(^fa)(dc) | "Gm"(Bd) (gB) "D7"A2^f2 |1 "Gm"g6 :|2 "Gm"g3z ||
M:3/4
R:Minuet
Q:1/4=112
P:C
%%MIDI program 73     Flute
|: ga | "Bb"b2B2b2 | "F"agabab | "Eb"g2G2g2 | "G7"f=efgfd |\
"Cm"e2e2 "F7"fe | "Bb"d2 ed"F7"cd | "Gm"B2G2"A7"^c2 | "D"d4 :|
P:D
|: d=e | "F"f2F2f2 | "Dm"f=efgfa | "Gm"g2G2g2 | "C"gfgaga |\
"Bb"b2B2b2 | "D7"a2A2 g^f | "/"=e^f (f3e/f/) | "Gm"g4 :|

